loleaflet/images/lc_wrapideal.svg

<svg viewBox="0 0 24 24" xmlns="http://www.w3.org/2000/svg"><path d="m6 7h12v11h-12z" fill="#ed8733"/><path d="m2.4453125 3c-.2471217 0-.4453125.1981908-.4453125.4453125v.109375c0 .2471217.1981908.4453125.4453125.4453125h19.1093755c.247121 0 .445312-.1981908.445312-.4453125v-.109375c0-.2471217-.198191-.4453125-.445312-.4453125zm0 3c-.2471217 0-.4453125.1981908-.4453125.4453125v.109375c0 .2471217.1981908.4453125.4453125.4453125h19.1093755c.247121 0 .445312-.1981908.445312-.4453125v-.109375c0-.2471217-.198191-.4453125-.445312-.4453125zm0 3c-.2471217 0-.4453125.1981908-.4453125.4453125v.109375c0 .2471217.1981908.4453125.4453125.4453125h3.109375c.2471217 0 .4453125-.1981908.4453125-.4453125v-.109375c0-.2471217-.1981908-.4453125-.4453125-.4453125zm15.9999995 0c-.247121 0-.445312.1981908-.445312.4453125v.109375c0 .2471217.198191.4453125.445312.4453125h3.109376c.247121 0 .445312-.1981908.445312-.4453125v-.109375c0-.2471217-.198191-.4453125-.445312-.4453125zm-15.9999995 3c-.2471217 0-.4453125.198191-.4453125.445312v.109376c0 .247121.1981908.445312.4453125.445312h3.109375c.2471217 0 .4453125-.198191.4453125-.445312v-.109376c0-.247121-.1981908-.445312-.4453125-.445312zm15.9999995 0c-.247121 0-.445312.198191-.445312.445312v.109376c0 .247121.198191.445312.445312.445312h3.109376c.247121 0 .445312-.198191.445312-.445312v-.109376c0-.247121-.198191-.445312-.445312-.445312zm-16.0351558 3c-.2272031 0-.4101562.182953-.4101562.410156v.179688c0 .227203.1829531.410156.4101562.410156h3.1796876c.2272031 0 .4101562-.182953.4101562-.410156v-.179688c0-.227203-.1829531-.410156-.4101562-.410156zm15.9999998 0c-.227203 0-.410156.182953-.410156.410156v.179688c0 .227203.182953.410156.410156.410156h3.179688c.227203 0 .410156-.182953.410156-.410156v-.179688c0-.227203-.182953-.410156-.410156-.410156zm-16.113281 3c-.1643219 0-.296875.132553-.296875.296875v.40625c0 .164322.1325531.296875.296875.296875h19.40625c.164322 0 .296875-.132553.296875-.296875v-.40625c0-.164322-.132553-.296875-.296875-.296875zm.1484375 3c-.2471217 0-.4453125.198191-.4453125.445312v.109376c0 .247121.1981908.445312.4453125.445312h19.1093755c.247121 0 .445312-.198191.445312-.445312v-.109376c0-.247121-.198191-.445312-.445312-.445312z" fill="#3a3a38"/><path d="m7 8h10v9h-10z" fill="#0063b1"/><path d="m8 9h8v7h-8z" fill="#83beec"/></svg>

<?xml version="1.0" encoding="UTF-8" standalone="no"?><svg viewBox="0 0 24 24" xmlns="http://www.w3.org/2000/svg">
  <path
     style="fill:#eac282"
     d="M 8 7 C 6.892 7 6 7.892 6 9 L 6 16 C 6 17.108 6.892 18 8 18 L 16 18 C 17.108 18 18 17.108 18 16 L 18 9 C 18 7.892 17.108 7 16 7 L 8 7 z M 8 8 L 16 8 C 16.554 8 17 8.446 17 9 L 17 16 C 17 16.554 16.554 17 16 17 L 8 17 C 7.446 17 7 16.554 7 16 L 7 9 C 7 8.446 7.446 8 8 8 z "
     />
  <path
     d="M 2.4453125 3 C 2.1981908 3 2 3.1981908 2 3.4453125 L 2 3.5546875 C 2 3.8018092 2.1981908 4 2.4453125 4 L 21.554688 4 C 21.801809 4 22 3.8018092 22 3.5546875 L 22 3.4453125 C 22 3.1981908 21.801809 3 21.554688 3 L 2.4453125 3 z M 2.4453125 6 C 2.1981908 6 2 6.1981908 2 6.4453125 L 2 6.5546875 C 2 6.8018092 2.1981908 7 2.4453125 7 L 21.554688 7 C 21.801809 7 22 6.8018092 22 6.5546875 L 22 6.4453125 C 22 6.1981908 21.801809 6 21.554688 6 L 2.4453125 6 z M 2.4453125 9 C 2.1981908 9 2 9.1981908 2 9.4453125 L 2 9.5546875 C 2 9.8018092 2.1981908 10 2.4453125 10 L 5.5546875 10 C 5.8018092 10 6 9.8018092 6 9.5546875 L 6 9.4453125 C 6 9.1981908 5.8018092 9 5.5546875 9 L 2.4453125 9 z M 18.445312 9 C 18.198191 9 18 9.1981908 18 9.4453125 L 18 9.5546875 C 18 9.8018092 18.198191 10 18.445312 10 L 21.554688 10 C 21.801809 10 22 9.8018092 22 9.5546875 L 22 9.4453125 C 22 9.1981908 21.801809 9 21.554688 9 L 18.445312 9 z M 2.4453125 12 C 2.1981908 12 2 12.198191 2 12.445312 L 2 12.554688 C 2 12.801809 2.1981908 13 2.4453125 13 L 5.5546875 13 C 5.8018092 13 6 12.801809 6 12.554688 L 6 12.445312 C 6 12.198191 5.8018092 12 5.5546875 12 L 2.4453125 12 z M 18.445312 12 C 18.198191 12 18 12.198191 18 12.445312 L 18 12.554688 C 18 12.801809 18.198191 13 18.445312 13 L 21.554688 13 C 21.801809 13 22 12.801809 22 12.554688 L 22 12.445312 C 22 12.198191 21.801809 12 21.554688 12 L 18.445312 12 z M 2.4101562 15 C 2.1829531 15 2 15.182953 2 15.410156 L 2 15.589844 C 2 15.817047 2.1829531 16 2.4101562 16 L 5.5898438 16 C 5.8170469 16 6 15.817047 6 15.589844 L 6 15.410156 C 6 15.182953 5.8170469 15 5.5898438 15 L 2.4101562 15 z M 18.410156 15 C 18.182953 15 18 15.182953 18 15.410156 L 18 15.589844 C 18 15.817047 18.182953 16 18.410156 16 L 21.589844 16 C 21.817047 16 22 15.817047 22 15.589844 L 22 15.410156 C 22 15.182953 21.817047 15 21.589844 15 L 18.410156 15 z M 2.296875 18 C 2.1325531 18 2 18.132553 2 18.296875 L 2 18.703125 C 2 18.867447 2.1325531 19 2.296875 19 L 21.703125 19 C 21.867447 19 22 18.867447 22 18.703125 L 22 18.296875 C 22 18.132553 21.867447 18 21.703125 18 L 2.296875 18 z M 2.4453125 21 C 2.1981908 21 2 21.198191 2 21.445312 L 2 21.554688 C 2 21.801809 2.1981908 22 2.4453125 22 L 21.554688 22 C 21.801809 22 22 21.801809 22 21.554688 L 22 21.445312 C 22 21.198191 21.801809 21 21.554688 21 L 2.4453125 21 z "
     style="fill:#808080" />
  <rect
     fill="#76a797"
     height="9"
     ry="1"
     width="10"
     x="7"
     y="8"
     style="fill:#4d82b8" />
</svg>
